X:31
T:Noman's Jigg. Roose.0066
T:Nobody's Jigg,aka. Roose.0066
T:Wood Waltham Green,aka. Roose.0066
M:C|
L:1/4
Q:2/4=75
B:John Roose MS, Manchester, 1850
Z:Village Music Project. Steve Mansfield, 2019
K:G
g | fd de/f/ | gG Gg | fd2 e/f/ | g3 a/g/ |\
fd de/f/ | gd dc | B2 A2 | G3 :|
|: B | ce2 d/c/ | Bd2 c/B/ | ce ed/c/ | Bd dg |\
fd de/f/ | gd dc | B2 A2 | G3 :|

